X:409
T:92nd Highlanders At The Maya Pass, The 
C:Joe Buchanan's Scottish Tome - Page 371.0
I:371 0
C:P.M. Donald McLeod, MBE
R:March
Z:Carl Allison
L:1/8
M:2/4
K:D
f | B/<c/A/>B/ cB/>c/ | fe/>f/ a/>e/f/>e/ | c/<A/c/>e/ cA/>c/ | eA/>c/ f/>A/e/>c/ |
B/<c/A/>B/ cB/>c/ | fe/>f/ a/>g/f/<a/ | cA/>B/ c/<e/f/>e/ | cB B :|
c/<e/ | fB/>c/ aB/>c/ | fB/>c/ a/>e/f/>e/ | c/<e/A/>c/ aA/>c/ | eA/>c/ f/>A/e/>c/ |
fB/>c/ aB/>c/ | fB/>c/ a/>g/f/<a/ | cA/>B/ c/<e/f/>e/ | cB B :|
f | B/>c/d/>c/ BB/>c/ | d/>c/B/>c/ d/>B/c/>B/ | A/>B/c/>B/ AA/>c/ | e/>f/e/>c/ f/>A/e/>c/ |
B/>c/d/>c/ BB/>c/ | d/>c/B/>c/ d/>B/c/>B/  | AA/>B/ c/<e/f/>e/ | cB B :|
c/<e/ | f/>e/f/<a/ B/>c/c/<e/ | fe/>f/ a/>e/f/>c/ | e/>c/B/<c/ A/>c/B/<c/ | e/>c/B/<c/ f/>A/e/>c/ |
f/>e/f/<a/ B/>c/c/<e/ | fe/>f/ a/>e/f/>e/ | cA/>B/ c/<e/f/>e/ | cB Bc/>e/ |
f/>e/f/<a/ B/>c/c/<e/ | fe/>f/ a/>e/f/>c/ | e/>c/B/<c/ A/>c/B/<c/ | e/>c/B/<c/ f/>A/e/>c/ |
B/<e/d/>c/ B/>c/c/<e/ | f/>e/f/>g/ a/>g/f/<a/ | cA/>B/ c/<e/f/>e/ | cB B |]

